app/assets/images/plasma.svg

<?xml version="1.0" encoding="UTF-8" standalone="no"?>
<svg width="90px" height="90px" viewBox="0 0 90 90" version="1.1" xmlns="http://www.w3.org/2000/svg" xmlns:xlink="http://www.w3.org/1999/xlink" xmlns:sketch="http://www.bohemiancoding.com/sketch/ns">
    <!-- Generator: Sketch 3.1 (8751) - http://www.bohemiancoding.com/sketch -->
    <title>Oval 1 + fat_beam</title>
    <desc>Created with Sketch.</desc>
    <defs></defs>
    <g id="Page-1" stroke="none" stroke-width="1" fill="none" fill-rule="evenodd" sketch:type="MSPage">
        <g id="Oval-1-+-fat_beam" sketch:type="MSLayerGroup">
            <circle id="Oval-1" fill="#000000" sketch:type="MSShapeGroup" cx="45" cy="45" r="45"></circle>
            <g id="fat_beam" transform="translate(45.000000, 45.000000) rotate(90.000000) translate(-45.000000, -45.000000) translate(14.000000, 14.000000)" fill="#FFFFFF" sketch:type="MSShapeGroup">
                <g id="Group">
                    <g transform="translate(0.000000, 20.446809)" id="Shape">
                        <g>
                            <path d="M-0.00329787234,0.570531915 L16.9121489,0.570531915 L23.1906383,8.47355319 L17.3830851,5.49161702 L-0.00329787234,5.49161702 L-0.00329787234,0.570531915 Z"></path>
                            <path d="M23.1906383,8.73012766 C23.1510638,8.73012766 23.1108298,8.72089362 23.0738936,8.70176596 L17.3210851,5.74753191 L-0.00329787234,5.74753191 C-0.145106383,5.74753191 -0.25987234,5.63276596 -0.25987234,5.49095745 L-0.25987234,0.570531915 C-0.25987234,0.428723404 -0.145106383,0.313957447 -0.00329787234,0.313957447 L16.9121489,0.313957447 C16.9906383,0.313957447 17.0638511,0.349574468 17.1126596,0.410914894 L23.3535532,8.26578723 C23.4181915,8.31261702 23.4597447,8.38846809 23.4597447,8.47355319 C23.4597447,8.61734043 23.333766,8.73342553 23.197234,8.73012766 C23.1952553,8.73012766 23.192617,8.73012766 23.1906383,8.73012766 L23.1906383,8.73012766 Z M0.253276596,5.23504255 L17.3830851,5.23504255 C17.4239787,5.23504255 17.4642128,5.24493617 17.4998298,5.26340426 L22.2500851,7.70251064 L16.7881489,0.827765957 L0.253276596,0.827765957 L0.253276596,5.23504255 L0.253276596,5.23504255 Z"></path>
                        </g>
                        <g transform="translate(0.000000, 12.531915)">
                            <path d="M-0.00329787234,8.00393617 L16.9121489,8.00393617 L23.1906383,0.100914894 L17.3830851,3.08417021 L-0.00329787234,3.08417021 L-0.00329787234,8.00393617 Z"></path>
                            <path d="M16.9121489,8.26182979 L-0.00329787234,8.26182979 C-0.145106383,8.26182979 -0.25987234,8.14706383 -0.25987234,8.00393617 L-0.25987234,3.08417021 C-0.25987234,2.9423617 -0.145106383,2.8262766 -0.00329787234,2.8262766 L17.3210851,2.8262766 L23.0738936,-0.127957447 C23.1807447,-0.182042553 23.312,-0.156319149 23.3891702,-0.062 C23.4663404,0.0323191489 23.467,0.166212766 23.3918085,0.25987234 L17.112,8.16289362 C17.0638511,8.22555319 16.9899787,8.26182979 16.9121489,8.26182979 L16.9121489,8.26182979 Z M0.253276596,7.74802128 L16.7881489,7.74802128 L22.2500851,0.87393617 L17.4998298,3.31238298 C17.4635532,3.33019149 17.4233191,3.34074468 17.3830851,3.34074468 L0.253276596,3.34074468 L0.253276596,7.74802128 L0.253276596,7.74802128 Z"></path>
                        </g>
                    </g>
                    <g transform="translate(0.000000, 4.617021)" id="Shape">
                        <path d="M62.0039574,26.3730851 L54.0198085,28.4105106 L47.8541064,51.3458936 L47.6443617,52.1314468 L25.1231915,27.0761915 C24.9536809,27.0148511 24.8052766,26.9739574 24.6819362,26.9739574 L-0.00395744681,26.9739574 L-0.00395744681,25.8751064 L24.6825957,25.8751064 C24.759766,25.8751064 24.8468298,25.8605957 24.9437872,25.8289362 L47.8541064,0.418829787 L54.0198085,24.3046596 L62.0039574,26.3730851"></path>
                        <path d="M47.6443617,52.3886809 C47.5724681,52.3886809 47.5025532,52.3576809 47.4537447,52.3035957 L24.976766,27.2964894 C24.8448511,27.2529574 24.7485532,27.2305319 24.6819362,27.2305319 L-0.00395744681,27.2305319 C-0.145765957,27.2305319 -0.261191489,27.115766 -0.261191489,26.9732979 L-0.261191489,25.8751064 C-0.261191489,25.7332979 -0.146425532,25.6185319 -0.00395744681,25.6185319 L24.6825957,25.6185319 C24.7182128,25.6185319 24.7584468,25.6132553 24.8032979,25.6027021 L47.6641489,0.248 C47.7274681,0.177425532 47.8250851,0.147744681 47.916766,0.170829787 C48.0084468,0.192595745 48.0803404,0.264489362 48.1034255,0.355510638 L54.2302128,24.0949149 L62.0692553,26.1250851 C62.1827021,26.154766 62.2625106,26.257 62.2625106,26.3744043 C62.2611915,26.4911489 62.1827021,26.593383 62.0679362,26.6224043 L54.2275745,28.6228936 L47.8917021,52.1980638 C47.8672979,52.2897447 47.7954043,52.359 47.7037234,52.3820851 C47.6839362,52.3873617 47.6634894,52.3886809 47.6443617,52.3886809 L47.6443617,52.3886809 Z M0.251957447,26.7167234 L24.6819362,26.7167234 C24.8224255,26.7167234 24.9853404,26.7536596 25.2102553,26.8347872 C25.2498298,26.8486383 25.2854468,26.872383 25.3138085,26.9040426 L47.5190426,51.6077447 L47.606766,51.2792766 L53.7711489,28.3438936 C53.7955532,28.2548511 53.8654681,28.1855957 53.9551702,28.1625106 L60.9737021,26.371766 L53.9538511,24.5533191 C53.8634894,24.5295745 53.794234,24.459 53.7711489,24.3692979 L47.7254894,0.945829787 L25.1344043,26.0004255 C25.1040638,26.0347234 25.0651489,26.0597872 25.0222766,26.0729787 C24.9009149,26.1118936 24.7868085,26.1310213 24.6825957,26.1310213 L0.251957447,26.1310213 L0.251957447,26.7167234 L0.251957447,26.7167234 Z"></path>
                    </g>
                    <path d="M57.6540638,62.0943191 C57.0874894,62.0943191 56.6271064,61.6345957 56.6271064,61.0673617 L56.6271064,36.5193191 C56.6271064,35.9514255 57.0868298,35.4923617 57.6540638,35.4923617 C58.2193191,35.4923617 58.6797021,35.950766 58.6797021,36.5193191 L58.6797021,61.0680213 C58.6790426,61.6345957 58.2193191,62.0943191 57.6540638,62.0943191 L57.6540638,62.0943191 Z" id="Shape"></path>
                    <path d="M57.6540638,26.5089574 C57.0874894,26.5089574 56.6271064,26.049234 56.6271064,25.4826596 L56.6271064,0.932638298 C56.6271064,0.365404255 57.0868298,-0.0936595745 57.6540638,-0.0936595745 C58.2193191,-0.0936595745 58.6797021,0.365404255 58.6797021,0.932638298 L58.6797021,25.4826596 C58.6790426,26.049234 58.2193191,26.5089574 57.6540638,26.5089574 L57.6540638,26.5089574 Z" id="Shape"></path>
                </g>
            </g>
        </g>
    </g>
</svg>

<?xml version="1.0" encoding="UTF-8" standalone="no"?>
<svg
   xmlns:sketch="http://www.bohemiancoding.com/sketch/ns"
   xmlns:dc="http://purl.org/dc/elements/1.1/"
   xmlns:cc="http://creativecommons.org/ns#"
   xmlns:rdf="http://www.w3.org/1999/02/22-rdf-syntax-ns#"
   xmlns:svg="http://www.w3.org/2000/svg"
   xmlns="http://www.w3.org/2000/svg"
   xmlns:sodipodi="http://sodipodi.sourceforge.net/DTD/sodipodi-0.dtd"
   xmlns:inkscape="http://www.inkscape.org/namespaces/inkscape"
   width="90px"
   height="90px"
   viewBox="0 0 90 90"
   version="1.1"
   id="svg3816"
   inkscape:version="0.48.4 r9939"
   sodipodi:docname="plasma.svg">
  <metadata
     id="metadata3854">
    <rdf:RDF>
      <cc:Work
         rdf:about="">
        <dc:format>image/svg+xml</dc:format>
        <dc:type
           rdf:resource="http://purl.org/dc/dcmitype/StillImage" />
      </cc:Work>
    </rdf:RDF>
  </metadata>
  <sodipodi:namedview
     pagecolor="#ffffff"
     bordercolor="#666666"
     borderopacity="1"
     objecttolerance="10"
     gridtolerance="10"
     guidetolerance="10"
     inkscape:pageopacity="0"
     inkscape:pageshadow="2"
     inkscape:window-width="640"
     inkscape:window-height="480"
     id="namedview3852"
     showgrid="false"
     inkscape:zoom="2.6222222"
     inkscape:cx="45"
     inkscape:cy="45"
     inkscape:window-x="65"
     inkscape:window-y="24"
     inkscape:window-maximized="0"
     inkscape:current-layer="svg3816" />
  <!-- Generator: Sketch 3.1 (8751) - http://www.bohemiancoding.com/sketch -->
  <title
     id="title3818">Oval 1 + fat_beam</title>
  <desc
     id="desc3820">Created with Sketch.</desc>
  <defs
     id="defs3822" />
  <circle
     id="Oval-1"
     sketch:type="MSShapeGroup"
     cx="45"
     cy="45"
     r="45"
     sodipodi:cx="45"
     sodipodi:cy="45"
     sodipodi:rx="45"
     sodipodi:ry="45"
     style="fill:#4d4d4d;stroke:none"
     transform="matrix(0.93220339,0,0,0.94067797,3.0508475,2.6694915)" />
  <g
     id="fat_beam"
     transform="matrix(0,0.89021113,-0.84055995,0,71.057306,17.403527)"
     sketch:type="MSShapeGroup"
     style="fill:#ffffff;stroke:none">
    <g
       id="Group">
      <g
         transform="translate(0,20.446809)"
         id="Shape">
        <g
           id="g3830">
          <path
             d="m -0.00329787,0.57053191 16.91544687,0 6.278489,7.90302129 -5.807553,-2.9819362 -17.38638287,0 0,-4.92108509 z"
             id="path3832"
             inkscape:connector-curvature="0" />
          <path
             d="m 23.190638,8.7301277 c -0.03957,0 -0.07981,-0.00923 -0.116744,-0.028362 l -5.752809,-2.9542341 -17.32438287,0 c -0.14180851,0 -0.25657447,-0.1147659 -0.25657447,-0.2565745 l 0,-4.92042549 c 0,-0.14180851 0.11476596,-0.25657446 0.25657447,-0.25657446 l 16.91544687,0 c 0.07849,0 0.151702,0.035617 0.200511,0.0969574 l 6.240893,7.85487235 c 0.06464,0.04683 0.106192,0.1226809 0.106192,0.207766 0,0.1437872 -0.125979,0.2598723 -0.262511,0.2565745 -0.002,0 -0.0046,0 -0.0066,0 l 0,0 z M 0.2532766,5.2350425 l 17.1298084,0 c 0.04089,0 0.08113,0.00989 0.116745,0.028362 l 4.750255,2.4391063 -5.461936,-6.87474464 -16.5348724,0 0,4.40727654 0,0 z"
             id="path3834"
             inkscape:connector-curvature="0" />
        </g>
        <g
           transform="translate(0,12.531915)"
           id="g3836">
          <path
             d="m -0.00329787,8.0039362 16.91544687,0 6.278489,-7.90302131 -5.807553,2.98325531 -17.38638287,0 0,4.919766 z"
             id="path3838"
             inkscape:connector-curvature="0" />
          <path
             d="m 16.912149,8.2618298 -16.91544687,0 c -0.14180851,0 -0.25657447,-0.114766 -0.25657447,-0.2578936 l 0,-4.919766 c 0,-0.1418085 0.11476596,-0.2578936 0.25657447,-0.2578936 l 17.32438287,0 5.752809,-2.95423405 C 23.180745,-0.18204255 23.312,-0.15631915 23.38917,-0.062 23.46634,0.03231915 23.467,0.16621277 23.39177,0.25987234 L 17.112,8.1628936 c -0.04815,0.06266 -0.122021,0.098936 -0.199851,0.098936 l 0,0 z M 0.2532766,7.7480213 l 16.5348724,0 L 22.250085,0.87393617 17.49983,3.312383 c -0.03628,0.017809 -0.07651,0.028362 -0.116745,0.028362 l -17.1298084,0 0,4.4072766 0,0 z"
             id="path3840"
             inkscape:connector-curvature="0" />
        </g>
      </g>
      <g
         transform="translate(0,4.617021)"
         id="g3842">
        <path
           d="m 62.003957,26.373085 -7.984148,2.037426 -6.165703,22.935383 -0.209744,0.785553 -22.521171,-25.055256 c -0.16951,-0.06134 -0.317914,-0.102234 -0.441255,-0.102234 l -24.68589345,0 0,-1.098851 24.68655345,0 c 0.07717,0 0.164234,-0.01451 0.261191,-0.04617 L 47.854106,0.41882979 54.019809,24.30466 l 7.984148,2.068425"
           id="path3844"
           inkscape:connector-curvature="0" />
        <path
           d="m 47.644362,52.388681 c -0.07189,0 -0.141809,-0.031 -0.190617,-0.08508 L 24.976766,27.296489 c -0.131915,-0.04353 -0.228213,-0.06596 -0.29483,-0.06596 l -24.68589345,0 c -0.14180851,0 -0.25723404,-0.114766 -0.25723404,-0.257234 l 0,-1.098192 c 0,-0.141808 0.11476596,-0.256574 0.25723404,-0.256574 l 24.68655345,0 c 0.03562,0 0.07585,-0.0053 0.120702,-0.01583 L 47.664149,0.248 c 0.06332,-0.0705745 0.160936,-0.10025532 0.252617,-0.0771702 0.09168,0.0217659 0.163574,0.0936596 0.186659,0.18468085 l 6.126788,23.73940435 7.839042,2.03017 c 0.113447,0.02968 0.193256,0.131915 0.193256,0.249319 -0.0013,0.116745 -0.07981,0.218979 -0.194575,0.248 l -7.840361,2.00049 -6.335873,23.57517 c -0.0244,0.09168 -0.0963,0.160936 -0.187979,0.184021 -0.01979,0.0053 -0.04023,0.0066 -0.05936,0.0066 l 0,0 z M 0.25195745,26.716723 l 24.42997855,0 c 0.14049,0 0.303404,0.03694 0.528319,0.118064 0.03957,0.01385 0.07519,0.0376 0.103553,0.06926 l 22.205235,24.703702 0.08772,-0.328468 6.164383,-22.935383 c 0.0244,-0.08904 0.09432,-0.158298 0.184021,-0.181383 L 60.973699,26.37177 53.953848,24.553323 C 53.863489,24.529574 53.794234,24.459 53.771149,24.369298 L 47.725489,0.94582979 25.134404,26.000425 c -0.03034,0.0343 -0.06925,0.05936 -0.112127,0.07255 -0.121362,0.03891 -0.235469,0.05804 -0.339681,0.05804 l -24.43063855,0 0,0.585702 0,0 z"
           id="path3846"
           inkscape:connector-curvature="0" />
      </g>
      <path
         d="m 57.654064,62.094319 c -0.566575,0 -1.026958,-0.459723 -1.026958,-1.026957 l 0,-24.548043 c 0,-0.567894 0.459724,-1.026957 1.026958,-1.026957 0.565255,0 1.025638,0.458404 1.025638,1.026957 l 0,24.548702 c -6.59e-4,0.566575 -0.460383,1.026298 -1.025638,1.026298 l 0,0 z"
         id="path3848"
         inkscape:connector-curvature="0" />
      <path
         d="m 57.654064,26.508957 c -0.566575,0 -1.026958,-0.459723 -1.026958,-1.026297 l 0,-24.5500217 c 0,-0.56723404 0.459724,-1.02629787 1.026958,-1.02629787 0.565255,0 1.025638,0.45906383 1.025638,1.02629787 l 0,24.5500217 c -6.59e-4,0.566574 -0.460383,1.026297 -1.025638,1.026297 l 0,0 z"
         id="path3850"
         inkscape:connector-curvature="0" />
    </g>
  </g>
</svg>
